-----BEGIN PGP SIGNATURE-----

iQGzBAABCgAdFiEEpecb4O4YW3nX5rbWtiHddBUFWSQFAmrHYloACgkQtiHddBUF
WSTtjQwAgE61HrN47nTTo1VHQp/0M+dNGqclL8T6DyfUQ469PtqtI28pnOjAqcRm
dZwE4KkYAWlyewSBBdfaNezvhW7wrDA3STcHL427iwNSHfVLMwrj2p6bse6KoHa3
72Ql3FWroephtlhsOX26hBRixmcSqKHqU2RrLn0xfk92d7xeRYO8mqobzqp/2un5
vd5hCd71kZnNVnkSy8m090YxDUoSVKmOilz4eM8CuH2ofPkmuQ8Kz1GmzHf2pHbK
mtPMUsfylKycYgCJdfhtE6FlJ8sXYsSn6Y4pMpiMVYkJgXaIusDXuiACPw910f7q
M7C3RALScBVzaH79t6qFFNx+ScU9CU9IzqBbvTGKaoVyXRIyhKlGAcR4IJQ3nqTG
V0vMPoUKAvNiru3yLPrxFuN7s6+wxPm+L2BSsxhAeMbcQn2CDRBGpxJwt2vj/+/L
2JO/Zxvtqbb3WQbvh1kiPZelSh4c/KCQGa6tL5+7wodwZK0tOhBPt669geyUuDI3
IV7erj4Y
=fs0h
-----END PGP SIGNATURE-----
